images_elementary_svg/cmd/32/ru/bold.svg

<svg height="32" width="32" xmlns="http://www.w3.org/2000/svg" xmlns:xlink="http://www.w3.org/1999/xlink"><radialGradient id="a" cx="40" cy="43.5" gradientTransform="matrix(1 0 0 .75 -37.297013 12.375)" gradientUnits="userSpaceOnUse" r="2" xlink:href="#e"/><radialGradient id="b" cx="9" cy="43.5" gradientTransform="matrix(1 0 0 .75 -9.861985 12.375)" gradientUnits="userSpaceOnUse" r="2" xlink:href="#e"/><linearGradient id="c" gradientUnits="userSpaceOnUse" x1="17" x2="17" xlink:href="#f" y1="46.5" y2="43.5"/><radialGradient id="d" cx="12.445683" cy="5.044209" gradientTransform="matrix(-1.3513697 .09319792 -.15050884 -2.1823783 30.023599 18.094326)" gradientUnits="userSpaceOnUse" r="10.04013"><stop offset="0" stop-color="#737373"/><stop offset=".26238" stop-color="#636363"/><stop offset=".704952" stop-color="#4b4b4b"/><stop offset="1" stop-color="#3f3f3f"/></radialGradient><linearGradient id="e"><stop offset="0"/><stop offset="1" stop-opacity="0"/></linearGradient><linearGradient id="f" gradientUnits="userSpaceOnUse" x1="17" x2="17" y1="46.5" y2="43.5"><stop offset="0" stop-opacity="0"/><stop offset=".5"/><stop offset="1" stop-opacity="0"/></linearGradient><g transform="matrix(.98177497 0 0 1.313771 25.670982 -32.590351)"><path d="m2.7029866 43.5v3h.5c.8310005 0 1.5000005-.669 1.5000005-1.5s-.669-1.5-1.5000005-1.5z" fill="url(#a)" opacity=".2"/><path d="m-1.4557351 43.5c-.7790625 0-1.40625.627187-1.40625 1.40625v.1875c0 .779063.6271875 1.40625 1.40625 1.40625h.59375003v-3z" fill="url(#b)" opacity=".2"/><path d="m-.86198507 43.5h3.56497167v3h-3.56497167z" fill="url(#c)" opacity=".2"/></g><g transform="matrix(.98177497 0 0 1.313771 15.096275 -32.590351)"><path d="m2.7029866 43.5v3h.5c.8310005 0 1.5000005-.669 1.5000005-1.5s-.669-1.5-1.5000005-1.5z" fill="url(#a)" opacity=".2"/><path d="m-1.4557351 43.5c-.7790625 0-1.40625.627187-1.40625 1.40625v.1875c0 .779063.6271875 1.40625 1.40625 1.40625h.59375003v-3z" fill="url(#b)" opacity=".2"/><path d="m-.86198507 43.5h3.56497167v3h-3.56497167z" fill="url(#f)" opacity=".2"/></g><path d="m8.3630882 20.026071-4.8870292-7.623766h3.4643607l4.6915483 7.688926v-7.688926h3.138559v7.688926l4.691548-7.688926h3.47522l-4.897889 7.623766 5.201971 8.253649h-3.594681l-4.876169-8.047308v8.047308h-3.138559v-8.047308l-4.8653093 8.047308h-3.6055416z" fill="url(#d)" stroke="#000" stroke-opacity=".6" stroke-width=".755564" transform="matrix(1.32351441 0 0 1.32351432 -1.472041 -10.913521)"/><g transform="matrix(.98177497 0 0 1.313771 4.521568 -32.590351)"><path d="m2.7029866 43.5v3h.5c.8310005 0 1.5000005-.669 1.5000005-1.5s-.669-1.5-1.5000005-1.5z" fill="url(#a)" opacity=".2"/><path d="m-1.4557351 43.5c-.7790625 0-1.40625.627187-1.40625 1.40625v.1875c0 .779063.6271875 1.40625 1.40625 1.40625h.59375003v-3z" fill="url(#b)" opacity=".2"/><path d="m-.86198507 43.5h3.56497167v3h-3.56497167z" fill="url(#c)" opacity=".2"/></g><path d="m3.1289062 5.5019531.9609376 1.5h3.6230468l5.8125004 9.5234379.398437-.660157v-.1875l-6.2109374-10.1757809zm10.7949218 0v1.5h4.152344v-1.5zm10.363281 0-6.210937 10.1757809v.1875l.398437.658204 5.8125-9.5214849h3.636719l.962891-1.5zm-15.1679684 10.8457029-6.4082031 10.167969h.9453125l5.9394531-9.423828zm13.7617184.001953-.476562.742188 5.939453 9.423828h.945312z" fill="#fff" opacity=".2" transform="matrix(1.00000001 0 0 1 .000001 0)"/></svg>

<?xml version="1.0" encoding="UTF-8" standalone="no"?>
<svg
   xmlns:dc="http://purl.org/dc/elements/1.1/"
   xmlns:cc="http://creativecommons.org/ns#"
   xmlns:rdf="http://www.w3.org/1999/02/22-rdf-syntax-ns#"
   xmlns:svg="http://www.w3.org/2000/svg"
   xmlns="http://www.w3.org/2000/svg"
   xmlns:xlink="http://www.w3.org/1999/xlink"
   xmlns:sodipodi="http://sodipodi.sourceforge.net/DTD/sodipodi-0.dtd"
   xmlns:inkscape="http://www.inkscape.org/namespaces/inkscape"
   height="32"
   width="32"
   version="1.1"
   id="svg41"
   sodipodi:docname="bold.svg"
   inkscape:version="0.92.4 (unknown)"
   inkscape:export-filename="/home/rizmut/Dokumen/Rizmut/Github/libreoffice-style-elementary/images_elementary/cmd/32/ru/bold.png"
   inkscape:export-xdpi="96"
   inkscape:export-ydpi="96">
  <metadata
     id="metadata47">
    <rdf:RDF>
      <cc:Work
         rdf:about="">
        <dc:format>image/svg+xml</dc:format>
        <dc:type
           rdf:resource="http://purl.org/dc/dcmitype/StillImage" />
        <dc:title></dc:title>
      </cc:Work>
    </rdf:RDF>
  </metadata>
  <defs
     id="defs45">
    <radialGradient
       inkscape:collect="always"
       xlink:href="#a"
       id="radialGradient854"
       gradientUnits="userSpaceOnUse"
       gradientTransform="matrix(1,0,0,0.75,-37.297013,12.375)"
       cx="40"
       cy="43.5"
       r="2" />
    <radialGradient
       inkscape:collect="always"
       xlink:href="#a"
       id="radialGradient856"
       gradientUnits="userSpaceOnUse"
       gradientTransform="matrix(1,0,0,0.75,-9.861985,12.375)"
       cx="9"
       cy="43.5"
       r="2" />
    <linearGradient
       inkscape:collect="always"
       xlink:href="#b"
       id="linearGradient858"
       gradientUnits="userSpaceOnUse"
       x1="17"
       y1="46.5"
       x2="17"
       y2="43.5" />
    <radialGradient
       inkscape:collect="always"
       xlink:href="#a"
       id="radialGradient868"
       gradientUnits="userSpaceOnUse"
       gradientTransform="matrix(1,0,0,0.75,-37.297013,12.375)"
       cx="40"
       cy="43.5"
       r="2" />
    <radialGradient
       inkscape:collect="always"
       xlink:href="#a"
       id="radialGradient870"
       gradientUnits="userSpaceOnUse"
       gradientTransform="matrix(1,0,0,0.75,-9.861985,12.375)"
       cx="9"
       cy="43.5"
       r="2" />
    <linearGradient
       inkscape:collect="always"
       xlink:href="#b"
       id="linearGradient872"
       gradientUnits="userSpaceOnUse"
       x1="17"
       y1="46.5"
       x2="17"
       y2="43.5" />
    <radialGradient
       inkscape:collect="always"
       xlink:href="#c"
       id="radialGradient880"
       cx="12.445683"
       cy="5.044209"
       fx="12.445683"
       fy="5.044209"
       r="10.04013"
       gradientTransform="matrix(-1.3513697,0.09319792,-0.15050884,-2.1823783,30.023599,18.094326)"
       gradientUnits="userSpaceOnUse" />
  </defs>
  <sodipodi:namedview
     pagecolor="#ffffff"
     bordercolor="#666666"
     borderopacity="1"
     objecttolerance="10"
     gridtolerance="10"
     guidetolerance="10"
     inkscape:pageopacity="0"
     inkscape:pageshadow="2"
     inkscape:window-width="1366"
     inkscape:window-height="714"
     id="namedview43"
     showgrid="true"
     inkscape:zoom="16"
     inkscape:cx="4.7694712"
     inkscape:cy="21.738855"
     inkscape:window-x="0"
     inkscape:window-y="28"
     inkscape:window-maximized="1"
     inkscape:current-layer="g39">
    <inkscape:grid
       type="xygrid"
       id="grid854" />
  </sodipodi:namedview>
  <linearGradient
     id="a">
    <stop
       offset="0"
       id="stop2" />
    <stop
       offset="1"
       stop-opacity="0"
       id="stop4" />
  </linearGradient>
  <linearGradient
     id="b"
     gradientUnits="userSpaceOnUse"
     x1="17"
     x2="17"
     y1="46.5"
     y2="43.5">
    <stop
       offset="0"
       stop-opacity="0"
       id="stop7" />
    <stop
       offset=".5"
       id="stop9" />
    <stop
       offset="1"
       stop-opacity="0"
       id="stop11" />
  </linearGradient>
  <radialGradient
     id="c"
     cx="13.325464"
     cy="8.331412"
     gradientTransform="matrix(-3.7117719 .11187051 -.21033005 -6.7825606 65.528784 64.934853)"
     gradientUnits="userSpaceOnUse"
     r="5.349211">
    <stop
       offset="0"
       stop-color="#737373"
       id="stop14" />
    <stop
       offset=".26238"
       stop-color="#636363"
       id="stop16" />
    <stop
       offset=".704952"
       stop-color="#4b4b4b"
       id="stop18" />
    <stop
       offset="1"
       stop-color="#3f3f3f"
       id="stop20" />
  </radialGradient>
  <radialGradient
     id="d"
     cx="40"
     cy="43.5"
     gradientTransform="matrix(1,0,0,0.75,-37.297013,12.375)"
     gradientUnits="userSpaceOnUse"
     r="2"
     xlink:href="#a" />
  <radialGradient
     id="e"
     cx="9"
     cy="43.5"
     gradientTransform="matrix(1,0,0,0.75,-9.861985,12.375)"
     gradientUnits="userSpaceOnUse"
     r="2"
     xlink:href="#a" />
  <g
     transform="matrix(1.33333 0 0 1.313771 -1.472041 -10.913521)"
     id="g39">
    <g
       id="g852"
       transform="matrix(0.73633307,0,0,1,20.357318,-16.499702)">
      <path
         inkscape:connector-curvature="0"
         style="opacity:0.2;fill:url(#radialGradient854)"
         id="path846"
         d="m 2.7029866,43.5 v 3 h 0.5 c 0.8310005,0 1.5000005,-0.669 1.5000005,-1.5 0,-0.831 -0.669,-1.5 -1.5000005,-1.5 z" />
      <path
         inkscape:connector-curvature="0"
         style="opacity:0.2;fill:url(#radialGradient856)"
         id="path848"
         d="m -1.4557351,43.5 c -0.7790625,0 -1.40625,0.627187 -1.40625,1.40625 v 0.1875 c 0,0.779063 0.6271875,1.40625 1.40625,1.40625 h 0.59375003 v -3 z" />
      <path
         sodipodi:nodetypes="ccccc"
         style="opacity:0.2;fill:url(#linearGradient858)"
         inkscape:connector-curvature="0"
         id="path850"
         d="M -0.86198507,43.5 H 2.7029866 v 3 h -3.56497167 z" />
    </g>
    <g
       transform="matrix(0.73633307,0,0,1,12.426268,-16.499702)"
       id="g31">
      <path
         d="m 2.7029866,43.5 v 3 h 0.5 c 0.8310005,0 1.5000005,-0.669 1.5000005,-1.5 0,-0.831 -0.669,-1.5 -1.5000005,-1.5 z"
         id="path25"
         style="opacity:0.2;fill:url(#d)"
         inkscape:connector-curvature="0" />
      <path
         d="m -1.4557351,43.5 c -0.7790625,0 -1.40625,0.627187 -1.40625,1.40625 v 0.1875 c 0,0.779063 0.6271875,1.40625 1.40625,1.40625 h 0.59375003 v -3 z"
         id="path27"
         style="opacity:0.2;fill:url(#e)"
         inkscape:connector-curvature="0" />
      <path
         d="M -0.86198507,43.5 H 2.7029866 v 3 h -3.56497167 z"
         id="path29"
         inkscape:connector-curvature="0"
         style="opacity:0.2;fill:url(#b)"
         sodipodi:nodetypes="ccccc" />
    </g>
    <g
       aria-label="Ж"
       transform="scale(0.99263829,1.0074163)"
       style="font-style:normal;font-weight:normal;font-size:22.24141312px;line-height:1.25;font-family:sans-serif;letter-spacing:0px;word-spacing:0px;fill:url(#radialGradient880);fill-opacity:1;stroke:#000000;stroke-width:0.75556415;stroke-miterlimit:4;stroke-dasharray:none;stroke-opacity:0.6"
       id="text844">
      <path
         d="M 8.3630882,20.026071 3.476059,12.402305 h 3.4643607 l 4.6915483,7.688926 v -7.688926 h 3.138559 v 7.688926 l 4.691548,-7.688926 h 3.47522 l -4.897889,7.623766 5.201971,8.253649 H 19.646696 L 14.770527,20.232412 V 28.27972 H 11.631968 V 20.232412 L 6.7666587,28.27972 H 3.1611171 Z"
         style="font-style:normal;font-variant:normal;font-weight:bold;font-stretch:normal;font-family:'Droid Sans';-inkscape-font-specification:'Droid Sans Bold';fill:url(#radialGradient880);fill-opacity:1;stroke:#000000;stroke-width:0.75556415;stroke-miterlimit:4;stroke-dasharray:none;stroke-opacity:0.6"
         id="path910" />
    </g>
    <g
       transform="matrix(0.73633307,0,0,1,4.4952182,-16.499702)"
       id="g866">
      <path
         d="m 2.7029866,43.5 v 3 h 0.5 c 0.8310005,0 1.5000005,-0.669 1.5000005,-1.5 0,-0.831 -0.669,-1.5 -1.5000005,-1.5 z"
         id="path860"
         style="opacity:0.2;fill:url(#radialGradient868)"
         inkscape:connector-curvature="0" />
      <path
         d="m -1.4557351,43.5 c -0.7790625,0 -1.40625,0.627187 -1.40625,1.40625 v 0.1875 c 0,0.779063 0.6271875,1.40625 1.40625,1.40625 h 0.59375003 v -3 z"
         id="path862"
         style="opacity:0.2;fill:url(#radialGradient870)"
         inkscape:connector-curvature="0" />
      <path
         d="M -0.86198507,43.5 H 2.7029866 v 3 h -3.56497167 z"
         id="path864"
         inkscape:connector-curvature="0"
         style="opacity:0.2;fill:url(#linearGradient872)"
         sodipodi:nodetypes="ccccc" />
    </g>
    <path
       style="font-style:normal;font-weight:normal;font-size:22.24141312px;line-height:1.25;font-family:sans-serif;letter-spacing:0px;word-spacing:0px;fill:#ffffff;fill-opacity:1;stroke:none;stroke-width:1;stroke-miterlimit:4;stroke-dasharray:none;stroke-opacity:0.6;opacity:0.2"
       d="M 3.1289062 5.5019531 L 4.0898438 7.0019531 L 7.7128906 7.0019531 L 13.525391 16.525391 L 13.923828 15.865234 L 13.923828 15.677734 L 7.7128906 5.5019531 L 3.1289062 5.5019531 z M 13.923828 5.5019531 L 13.923828 7.0019531 L 18.076172 7.0019531 L 18.076172 5.5019531 L 13.923828 5.5019531 z M 24.287109 5.5019531 L 18.076172 15.677734 L 18.076172 15.865234 L 18.474609 16.523438 L 24.287109 7.0019531 L 27.923828 7.0019531 L 28.886719 5.5019531 L 24.287109 5.5019531 z M 9.1191406 16.347656 L 2.7109375 26.515625 L 3.65625 26.515625 L 9.5957031 17.091797 L 9.1191406 16.347656 z M 22.880859 16.349609 L 22.404297 17.091797 L 28.34375 26.515625 L 29.289062 26.515625 L 22.880859 16.349609 z "
       transform="matrix(0.75000188,0,0,0.76116766,1.1040335,8.3070193)"
       id="text884" />
  </g>
</svg>
